remix/Business/record-mail-line.svg

<svg viewBox="0 0 24 24" fill="currentColor" xmlns="http://www.w3.org/2000/svg"><path d="M14.2572 15C13.4718 14.0491 13 12.8296 13 11.5C13 8.46243 15.4624 6 18.5 6C21.5376 6 24 8.46243 24 11.5C24 14.5376 21.5376 17 18.5 17H5.5C2.46243 17 0 14.5376 0 11.5C0 8.46243 2.46243 6 5.5 6C8.53757 6 11 8.46243 11 11.5C11 12.8296 10.5282 14.0491 9.74284 15H14.2572ZM5.5 15C7.433 15 9 13.433 9 11.5C9 9.567 7.433 8 5.5 8C3.567 8 2 9.567 2 11.5C2 13.433 3.567 15 5.5 15ZM18.5 15C20.433 15 22 13.433 22 11.5C22 9.567 20.433 8 18.5 8C16.567 8 15 9.567 15 11.5C15 13.433 16.567 15 18.5 15Z"/></svg>

<svg viewBox="0 0 24 24" xmlns="http://www.w3.org/2000/svg"><path fill="none" d="M0 0h24v24H0Z"/><path d="M14.25 15v0c-1.94-2.35-1.61-5.81.74-7.75 2.34-1.94 5.8-1.61 7.74.74 1.93 2.34 1.6 5.8-.75 7.74 -.99.81-2.23 1.25-3.5 1.25h-13 -.001c-3.04-.01-5.5-2.47-5.5-5.51 0-3.04 2.46-5.5 5.5-5.5 3.03 0 5.49 2.46 5.49 5.5 -.01 1.27-.45 2.51-1.26 3.49h4.51Zm-8.76 0v0c1.93 0 3.5-1.57 3.5-3.5 0-1.94-1.57-3.5-3.5-3.5v0c-1.94 0-3.5 1.56-3.5 3.5 0 1.93 1.56 3.5 3.5 3.5Zm13 0v0c1.93 0 3.5-1.57 3.5-3.5 0-1.94-1.57-3.5-3.5-3.5v0c-1.94 0-3.5 1.56-3.5 3.5 0 1.93 1.56 3.5 3.5 3.5Z"/></svg>
